X:1
T:Have mercy, Lord, on me
T:John Broderip
T:Text: Nahum Tate/Nicholas Brady, on Ps. 51
T:This edition by Edmund Gooch released into the public domain, June 2015.
T:Have mercy, Lord, on me
T:Psalm the 51st. New Ver.
C:John Broderip
Z:Text: Nahum Tate/Nicholas Brady, on Ps. 51
%%score [ 1 2 3 4 ]
L:1/8
M:4/4
K:C
V:1 treble nm="Soprano" snm="S."
V:2 treble nm="Alto" snm="A."
V:3 treble-8 transpose=-12 nm="Tenor" snm="T."
V:4 bass nm="Bass" snm="B."
V:1
 A8 | c4 E4 | A4 (B2 A2) | ^G8 | z4 e4 | (d2 c2) B4 | A4 B4 | c8 | z4 G4 | A4 B4 | c4 d4 | e4 A4 | %12
w: Let|Si- on|fa- vour _|find,|Of|thy _ good-|will as-|sured;|And|thy own|ci- ty|flou- rish|
w: Have|mer- cy,|Lord, on _|me,|As|thou _ wert|ev- er|kind;|Let|me, op-|prest with|loads of|
w: Do|thou un-|lock my _|lips|With|sor- * row|closed and|shame;|So|shall my|mouth thy|wond- rous|
 E8 | z4 G4 | d4 c4 | (B2 A2) ^G4 | A8 |] %17
w: long,|By|lof- ty|walls _ se-|cured.|
w: guilt,|Thy|wont- ed|mer- * cy|find.|
w: praise|To|all the|world _ pro-|claim.|
V:2
 E8 | E4 E4 | (E2 D2) F4 | E8 | z4 (B,2 C2) | D4 (G2 F2) | E4 F4 | E8 | z4 E4 | C4 E4 | E4 G4 | %11
w: Let|Si- on|fa- * vour|find,|Of _|thy good- *|will as-|sured;|And|thy own|ci- ty|
w: Have|mer- cy,|Lord, _ on|me,|As _|thou wert _|ev- er|kind;|Let|me, op-|prest with|
w: Do|thou un-|lock _ my|lips|With _|sor- row _|closed and|shame;|So|shall my|mouth thy|
 G4 E4 | E8 | z4 E4 | D4 E4 | A4 E4 | E8 |] %17
w: flou- rish|long,|By|lof- ty|walls se-|cured.|
w: loads of|guilt,|Thy|wont- ed|mer- cy|find.|
w: wond- rous|praise|To|all the|world pro-|claim.|
V:3
 e8 | e4 ^G4 | A4 (d2 c2) | B8 | z4 ^G4 | A4 B4 | c4 d4 | e8 | z4 c4 | A4 ^G4 | A4 B4 | c4 A4 | %12
w: Let|Si- on|fa- vour _|find,|Of|thy good-|will as-|sured;|And|thy own|ci- ty|flou- rish|
w: Have|mer- cy,|Lord, on _|me,|As|thou wert|ev- er|kind;|Let|me, op-|prest with|loads of|
w: Do|thou un-|lock my _|lips|With|sor- row|closed and|shame;|So|shall my|mouth thy|wond- rous|
 ^G8 | z4 c4 | ^G4 A4 | d4 B4 | A8 |] %17
w: long,|By|lof- ty|walls se-|cured.|
w: guilt,|Thy|wont- ed|mer- cy|find.|
w: praise|To|all the|world pro-|claim.|
V:4
 A,8 | A,4 E,4 | F,4 D,4 | E,8 | z4 E,4 | F,4 G,4 | A,4 G,4 | C8 | %8
w: Let|Si- on|fa- vour|find,|Of|thy good-|will as-|sured;|
w: Have|mer- cy,|Lord, on|me,|As|thou wert|ev- er|kind;|
w: Do|thou un-|lock my|lips|With|sor- row|closed and|shame;|
"^Notes: Original clefs treble, alto, tenor, bass. The first verse only of the text is given in the source: three selectedsubsequent verses have been added editorially." z4 C,4 | %9
w: And|
w: Let|
w: So|
 F,4 E,4 | A,4 G,4 | C4 (C,2 D,2) | E,8 | z4 C,4 | B,,4 A,,4 | F,4 E,4 | A,8 |] %17
w: thy own|ci- ty|flou- rish _|long,|By|lof- ty|walls se-|cured.|
w: me, op-|prest with|loads of _|guilt,|Thy|wont- ed|mer- cy|find.|
w: shall my|mouth thy|wond- rous _|praise|To|all the|world pro-|claim.|

